source/img/like-icon.svg

<svg width="23" height="21" viewBox="0 0 23 21" fill="none" xmlns="http://www.w3.org/2000/svg">
<path opacity="0.3" d="M12.9335 3.78L12.3259 6.825L11.7182 9.45H14.2501H20.5294V11.55C20.5294 11.55 20.5294 11.55 20.5294 11.655L17.5923 18.9H8.47727V8.4L12.9335 3.78ZM13.7438 0L7.05938 6.93C6.65426 7.245 6.4517 7.77 6.4517 8.4V18.9C6.4517 20.055 7.36321 21 8.47727 21H17.5923C18.4026 21 19.1115 20.475 19.4153 19.74L22.4537 12.285C22.555 12.075 22.555 11.76 22.555 11.55V9.45H22.6562C22.6562 8.295 21.7447 7.35 20.6307 7.35H14.2501L15.2629 2.52V2.205C15.2629 1.785 15.0604 1.365 14.8578 1.05L13.7438 0ZM4.42614 8.4H0.375V21H4.42614V8.4Z" fill="black"/>
</svg>

<svg width="23" height="21" viewBox="0 0 23 21" fill="none" xmlns="http://www.w3.org/2000/svg"><path opacity=".3" d="m12.93 3.78-.6 3.05-.61 2.62h8.81v2.2l-2.94 7.25H8.48V8.4l4.45-4.62ZM13.74 0 7.06 6.93c-.4.32-.6.84-.6 1.47v10.5c0 1.16.9 2.1 2.02 2.1h9.11a2 2 0 0 0 1.83-1.26l3.03-7.45c.1-.21.1-.53.1-.74v-2.1h.1c0-1.15-.9-2.1-2.02-2.1h-6.38l1.01-4.83v-.31c0-.43-.2-.84-.4-1.16L13.74 0ZM4.43 8.4H.38V21h4.05V8.4Z" fill="#000"/></svg>
